X:1
T:Benedictus sit deus
T:José de Torres y Martinez Bravo [1665-1738]
T:Benedictus sit deus
T:Copyright © 
T:Copyright © 
C:José de Torres y Martinez Bravo [1665-1738]
Z:Copyright ©
%%score [ 1 2 ]
L:1/8
M:4/4
K:F
V:1 treble nm="[Soprano]" snm="S."
V:2 treble-8 transpose=-12 nm="[Tenor]" snm="T."
V:1
 z2 AB c2 dc | B2 A2 c2 BA | G4 F4 | z4 z2 cd | e2 fe d2 cd | e2 d2 c4 | z2 cd e>e ff | %7
w: Be- ne- dic- tus _|sit de- us pa- *|* ter,|be- ne-|dic- tus sit de- us _|pa- * ter,|u- ni- ge- ni- tus- que|
 ^c2 d2 z2 de | ^f>f gg d2 _e2 | =BA c4 B2 | c4 z2 cd | e>e ff ^c=B d2- | d2 ^c2 d2 =B2- | %13
w: de- i. u- ni-|ge- ni- tus- que de- i|fi- * * li-|us, u- ni-|ge- ni- tus- que de- i fi-|* li- us, sanc-|
 B2 c2 A2 =Bc | =B3 B c2 e2- | e2 f2 d2 ef | ed/c/ f4 e2 | f8 ||[M:3/4] z6 | z6 | z2 F2 G2 | %21
w: * tus quo- que _|spi- ri- tus, sanc-|* tus quo- que _|spi- * * * ri-|tus.|||Qui- a|
 c2 dc BA | G2 F4 | z2 B2 B2- | B2 A4 | GA BA GF | E2 F4 | D4 B2- | B2 A4 | GF GA GA | F4 z2 | z6 | %32
w: fe- cit _ no- *|bis- cum|mi- se-|* ri-|cor- * * * * *|* di-|am su-|||am,||
 z2 f2 f2- | f2 e4 | de fe dc | =B2 c4 | A4 f2- | f2 e4 | dc de de | c6 | z2 e2 f2 | g2 c4 | %42
w: mi- se-|* ri-|cor- * * * * *|* di-|am su-|||am,|qui- a|fe- cit,|
 z2 A2 B2 | c2 d2 cB | A2 B4 | z2 d2 _e2 | f2 gf _ed | c2 B4 | z2 _e2 e2- | e2 d4 | cd _ed cB | %51
w: qui- a|fe- cit no- *|bis- cum,|qui- a|fe- cit _ no- *|bis- cum|mi- se-|* ri|cor- * * * * *|
 A2 B4 | G4 _e2- | e2 d4 | cB cd cd | B6 | z2 f2 f2- | f2 e4 | d3 cde | fg fe fd | e3 def | %61
w: * di-|am su-|||am,|mi- se-|* ri-|cor- * * *|||
 ga gf ge | f3 _efg | ab ag af | ga gf g_e | fg f_e fd | _e4 e2 | d2 ba gf | ed f4- | f2 e4 | %70
w: |||||* di-|am su- * * *|||
 f12 |] %71
w: am.|
V:2
 z2 FG A2 BA | G2 F2 A2 GF | c2 C2 F2 AB | c2 dc B2 A2 | G2 F2 G2 A2 | G4 C2 CD | E>E FF ^C2 D2 | %7
w: Be- ne- dic- tus sit|de- us pa- * *|* * ter, be- ne-|dic- tus sit de- us|pa- * * *|* ter, u- ni-|ge- i- tus- que de- i,|
 z2 DE ^F>F G2 | z2 GA =B>B cc | G2 A2 G3 G | C2 cd e>e ff | ^c2 d2 A2 =B2 | A3 A D2 G2- | %13
w: u- ni- ge- ni- tus,|u- ni- ge- ni- tus que|de- i fi- li-|us, u- ni- ge- ni- tus- que|de- i fi- *|* li- us, sanc-|
 G2 E2 F2 GA | G3 G C2 c2- | c2 A2 B2 cd | cB AG/F/ c2 C2 | F8 ||[M:3/4] z2 A2 B2 | c2 dc BA | %20
w: * tus quo- que _|spi- ri- tus, sanc-|* tus quo- que _|spi- * * * * * ri-|tus.|Qui- ia|fe- cit _ no- *|
 G2 F4 | z2 B2 B2- | B2 A4 | GA BA GF | E2 F4 | B,4 B2- | B2 A4 | Bc BA GF | E2 F4 | c6 | %30
w: bis- cum|mi- se-|* ri-|cor- * * * * *|* di-|am su-|||||
 F2 f2 f2- | f2 e4 | de fe dc | =B2 c4 | F4 f2- | f2 e4 | fg fe dc | =B2 c4 | G6 | c2 e2 f2 | %40
w: am, mi- se-|* ri-|cor- * * * * *|* di-|am su-|||||am, qui- a|
 g2 c4 | z2 A2 B2 | c2 F4 | z2 d2 e2 | f2 gf _ed | c2 B4 | z2 _e2 e2- | e2 d4 | cd _ed cB | A2 B4 | %50
w: fe- cit,|qui- a|fe- cit,|qui- a|fe- cit _ no- *|bis- cum|mi- se-|ri- cor-||* di-|
 _E4 _e2- | e2 d4 | _ef ed cB | A2 B4 | F6 | z2 B2 B2- | B2 A4 | G3 FGA | Bc BA BG | A3 GAB | %60
w: am su-||||am,|mi- se-|* ri-|cor- * * *|||
 cd cB cA | B3 ABc | d_e dc dB | c3 Bcd | _ef ed ec | d_e dc dB | c4 c2 | B4 B2- | B2 AG AB | %69
w: ||||||* di-|am su-||
 c2 C4 | F12 |] %71
w: |am.|

